X:1
T:I Find Thee So Precious
T:I Find Thee So Precious
T:James McGranahan
T:James Martin Gray, 1904
T:Public Domain Courtesy of the Cyber Hymnal™
T:Public Domain Courtesy of the Cyber Hymnal™
C:James McGranahan
Z:Public Domain
Z:Courtesy of the Cyber Hymnal™
%%score ( 1 2 ) ( 3 4 )
L:1/8
Q:1/4=105
M:4/4
K:F
V:1 treble 
V:2 treble 
V:3 bass 
V:4 bass 
V:1
 C | A2 GF F2 EF | G2 DE F3 C x3 | c2 BA A2 | GF | (z E)F =G3 ^G x | A2 GF B2 AG | %7
w: 1.~O|what are the plea- sures that|sil- ver can buy? They|come and they go,|but can-|* not sa- tis-|fy; But praised be the Sav-|
w: 2.~I|care not if all the proud|world turn a- way, The|plau- dits of men|on- ly|* last for a|day; Their frowns do not fright-|
w: 3.~As|well in the cot- tage as|un- der the dome, Be-|side my own cot,|or wher-|* ev- er I|roam; The ho- ney from Heav-|
 c2 BA [Bd]3 [df] x2 | [ce]2 [Bd][Ac] [Bc]2 EG x | G4 F2 z ||"^Refrain" [FA] | %11
w: ior! I cease not to|cry, I find Thee so pre-|cious, my|Sav-|
w: en, or cause me dis-|may, I find Thee so pre-|cious, my|Sav-|
w: en still drips from the|comb; I find Thee so pre-|cious, my|Sav-|
 [FA]2 [GB][Ac] [ce]2 [Bd][Ac] | ([Ac][GB])[DF][EG] !fermata![FA]2 [FA]>[FA] | %13
w: ior! * * * * *||
w: ior! O sweet- er and sweet-|er, * as day fol- lows day,|
w: ior! * * * * *||
 [EA]2 [G=B][G^c] [Fd]2 [Fd][Af] | ([Af][Ge]) [Ge]>[Fd] !fermata![Ec]2 [Ec][GB] | %15
w: ||
w: As the gold of the morn-|ing * breaks forth through the gray;|
w: ||
 [FA]2 [EG]F [EB]2 [EA][EG] | [Fc]2 [FB][FA] [Fd]3 [^Gf] | [Ae]2 [Fd][Fc] [Ec]2 [CE][CG] | %18
w: |||
w: As I lift up my soul,|as I praise and I|pray, I find Thee more pre-|
w: |||
 [CG]4 [CF]3 |] %19
w: |
w: cious, my|
w: |
V:2
 x | x8 | x11 | x6 | x2 | (F2 ^G/F/) x5 | x8 | x10 | x9 | x7 || x | x8 | x8 | x8 | x8 | x3 F x4 | %16
 x8 | x8 | x7 |] %19
V:3
 A, | C2 [C,B,][C,B,] A,2 [C,G,][C,A,] | B,2 [E,G,][E,G,B,] [E,G,B,] A,3 ([C,F,][C,F,])[C,F,A,] | %3
 A,2 [F,D][F,C] C2 | [F,B,][F,A,] | (z B,/A,/) G,A, [C,E,G,B,]3 =B, | %6
 C2 [F,B,][F,A,] D2 [F,C][F,B,] | [A,,F,A,][F,A,C][F,A,_E][F,A,E] D3 ([D,F,][D,F,])[D,F,B,F] | %8
 [B,E]2 [E,G,][E,G,D] [E,G,C] [C,E,G,C]2 CB, | [C,E,B,]4 [F,,C,A,]2 z || [F,C] | %11
 [F,C]2 [F,F][F,F] [^F,A,]2 [F,D][F,D] | [G,D]2 [C,B,][C,B,] (A,<C) [D,D]>[D,D] | %13
 [A,^C]2 [A,E]A, [D,A,]2 [D,A,][D,D] | [G,C]2 [G,=B,]>[G,B,] !fermata![C,_B,]2 [C,G,][C,C] | %15
 [F,C]2 [B,C][A,C] [G,C]2 [C,C][B,C] | [A,C]2 [G,C][F,C] [B,,B,]3 [=B,,D] | %17
 [C,C]2 [C,B,][C,A,] [C,G,]2 [C,G,][C,B,] | [C,B,]4 [F,A,]3 |] %19
V:4
 x | ([F,,F,]C,) x ([F,,F,] C,) x3 | C, x [F,,F,] x8 | ([F,,F,]F,) x ([F,,F,] F,) x | x2 | %5
 [F,A,]2 x6 | ([F,,F,]F,) x ([F,,F,] F,) x3 | x4 [B,,B,] x5 | (C, x3 [C,E,G,]2) x3 | x7 || x | x8 | %12
 x4 F,2 x2 | x3 A, x4 | x8 | x8 | x8 | x8 | x7 |] %19

